DSView/icons/dark/file.svg

<?xml version="1.0" encoding="UTF-8" standalone="no"?>
<!-- 由 Microsoft Visio, SVG Export 生成 file.svg 页-1 -->

<svg
   xmlns:v="http://schemas.microsoft.com/visio/2003/SVGExtensions/"
   xmlns:dc="http://purl.org/dc/elements/1.1/"
   xmlns:cc="http://creativecommons.org/ns#"
   xmlns:rdf="http://www.w3.org/1999/02/22-rdf-syntax-ns#"
   xmlns:svg="http://www.w3.org/2000/svg"
   xmlns="http://www.w3.org/2000/svg"
   xmlns:sodipodi="http://sodipodi.sourceforge.net/DTD/sodipodi-0.dtd"
   xmlns:inkscape="http://www.inkscape.org/namespaces/inkscape"
   width="512"
   height="512"
   viewBox="0 0 384.00023 383.99965"
   xml:space="preserve"
   class="st2"
   version="1.1"
   id="svg16"
   sodipodi:docname="file.svg"
   style="font-size:12px;overflow:visible;color-interpolation-filters:sRGB;fill:none;fill-rule:evenodd;stroke-linecap:square;stroke-miterlimit:3"
   inkscape:version="0.92.4 (5da689c313, 2019-01-14)"><metadata
   id="metadata22"><rdf:RDF><cc:Work
       rdf:about=""><dc:format>image/svg+xml</dc:format><dc:type
         rdf:resource="http://purl.org/dc/dcmitype/StillImage" /><dc:title></dc:title></cc:Work></rdf:RDF></metadata><defs
   id="defs20" /><sodipodi:namedview
   pagecolor="#ffffff"
   bordercolor="#666666"
   borderopacity="1"
   objecttolerance="10"
   gridtolerance="10"
   guidetolerance="10"
   inkscape:pageopacity="0"
   inkscape:pageshadow="2"
   inkscape:window-width="3840"
   inkscape:window-height="2081"
   id="namedview18"
   showgrid="false"
   units="px"
   inkscape:zoom="0.66210977"
   inkscape:cx="255.99985"
   inkscape:cy="177.32016"
   inkscape:window-x="-9"
   inkscape:window-y="-9"
   inkscape:window-maximized="1"
   inkscape:current-layer="svg16" />
	<v:documentProperties
   v:langID="2052"
   v:viewMarkup="false" />

	<style
   type="text/css"
   id="style2">
	<![CDATA[
		.st1 {fill:#d7d7d7;stroke:none;stroke-linecap:butt;stroke-width:0.647758}
		.st2 {fill:none;fill-rule:evenodd;font-size:12px;overflow:visible;stroke-linecap:square;stroke-miterlimit:3}
	]]>
	</style>

	<g
   v:mID="0"
   v:index="1"
   v:groupContext="foregroundPage"
   id="g14"
   transform="translate(1.1719315,59.024225)">
		<title
   id="title4">页-1</title>
		<v:pageProperties
   v:drawingScale="0.0393701"
   v:pageScale="0.0393701"
   v:drawingUnits="24"
   v:shadowOffsetX="9"
   v:shadowOffsetY="-9" />
		<g
   id="group243-1"
   v:mID="243"
   v:groupContext="group">
			<title
   id="title6">工作表.243</title>
			<g
   id="shape244-2"
   v:mID="244"
   v:groupContext="shape"
   transform="translate(64.0946,-13.9494)">
				<title
   id="title8">工作表.244</title>
				<path
   d="m 251.91,172.5 -44.79,84.77 c -2.19,4.22 -8.4,8.68 -13.2,8.68 L 14.3,265.98 c -3.79,0 -7.43,-1.5 -10.11,-4.19 C 1.51,259.11 0,255.47 0,251.68 L 0.03,112.2 c 0,-7.89 6.39,-14.29 14.28,-14.29 l 13.13,-0.02 v 12.19 h -8.78 c -1.72,0 -3.37,0.68 -4.59,1.9 -1.22,1.21 -1.9,2.86 -1.9,4.59 l 0.01,130.74 c 0,3.59 2.91,6.49 6.49,6.49 h 9 l 42.45,-85.87 c 2.4,-4.8 6.93,-8.67 11.72,-8.67 H 185.8 l 0.03,-34.56 c 6.79,0.63 12.15,6.26 12.15,13.21 v 21.35 h 47.68 c 5.63,0.06 10.37,5.62 6.25,13.24 z M 35.73,210.58 c -0.39,-42.75 0,-170.98 0,-170.98 0,-6.47 5.26,-11.73 11.72,-11.73 h 93.9 c 1.51,0 2.94,0.63 3.96,1.74 l 30.35,32.98 c 0.91,0.99 1.42,2.29 1.42,3.64 v 85.44 h -9.84 V 73.61 c 0,-1.35 -1.1,-2.45 -2.45,-2.45 h -23.24 c -2.72,0 -4.93,-2.21 -4.93,-4.92 V 40.17 c 0,-1.35 -1.1,-2.45 -2.45,-2.45 H 47.46 c -1.04,0 -1.88,0.84 -1.88,1.88 v 160.22 l -7.54,15.25 c 0,0 -2.27,-0.17 -2.31,-4.49 z M 146.48,61.32 h 14.63 l -14.63,-15.9 z m 5.33,19.87 H 61.06 c -3.34,0 -6.06,2.72 -6.06,6.06 0,3.34 2.72,6.06 6.06,6.06 h 90.76 c 3.34,0 6.06,-2.72 6.06,-6.06 0,-3.34 -2.72,-6.06 -6.07,-6.06 z m 6.07,41.35 c 0,-3.34 -2.72,-6.05 -6.07,-6.05 H 61.06 c -3.34,0 -6.06,2.71 -6.06,6.05 0,3.34 2.72,6.06 6.06,6.06 h 90.76 c 3.34,0 6.06,-2.72 6.06,-6.06 z M 55,158.07 c 0,3.34 2.72,6.05 6.06,6.05 h 2.18 c 3.83,-10.67 13.32,-12.11 13.32,-12.11 h -15.5 c -3.34,0 -6.06,2.72 -6.06,6.06 z"
   class="st1"
   id="path10"
   inkscape:connector-curvature="0"
   style="fill:#d7d7d7;stroke:none;stroke-width:0.64775801;stroke-linecap:butt" />
			</g>
		</g>
	</g>
</svg>

<?xml version="1.0" encoding="UTF-8" standalone="no"?>
<!DOCTYPE svg PUBLIC "-//W3C//DTD SVG 1.1//EN" "http://www.w3.org/Graphics/SVG/1.1/DTD/svg11.dtd">
<!-- 由 Microsoft Visio, SVG Export 生成 file.svg 页-1 -->
<svg xmlns="http://www.w3.org/2000/svg" xmlns:xlink="http://www.w3.org/1999/xlink" xmlns:ev="http://www.w3.org/2001/xml-events"
		xmlns:v="http://schemas.microsoft.com/visio/2003/SVGExtensions/" width="5.33333in" height="3.69417in"
		viewBox="0 0 384 265.98" xml:space="preserve" color-interpolation-filters="sRGB" class="st2">
	<v:documentProperties v:langID="2052" v:viewMarkup="false"/>

	<style type="text/css">
	<![CDATA[
		.st1 {fill:#d7d7d7;stroke:none;stroke-linecap:butt;stroke-width:0.647758}
		.st2 {fill:none;fill-rule:evenodd;font-size:12px;overflow:visible;stroke-linecap:square;stroke-miterlimit:3}
	]]>
	</style>

	<g v:mID="0" v:index="1" v:groupContext="foregroundPage">
		<title>页-1</title>
		<v:pageProperties v:drawingScale="0.0393701" v:pageScale="0.0393701" v:drawingUnits="24" v:shadowOffsetX="9"
				v:shadowOffsetY="-9"/>
		<g id="group243-1" v:mID="243" v:groupContext="group">
			<title>工作表.243</title>
			<g id="shape244-2" v:mID="244" v:groupContext="shape" transform="translate(64.0946,-13.9494)">
				<title>工作表.244</title>
				<path d="M251.91 172.5 L207.12 257.27 C204.93 261.49 198.72 265.95 193.92 265.95 L14.3 265.98 C10.51 265.98 6.87
							 264.48 4.19 261.79 C1.51 259.11 0 255.47 0 251.68 L0.03 112.2 C0.03 104.31 6.42 97.91 14.31 97.91 L27.44
							 97.89 L27.44 110.08 L18.66 110.08 C16.94 110.08 15.29 110.76 14.07 111.98 C12.85 113.19 12.17 114.84
							 12.17 116.57 L12.18 247.31 C12.18 250.9 15.09 253.8 18.67 253.8 L27.67 253.8 L70.12 167.93 C72.52 163.13
							 77.05 159.26 81.84 159.26 L185.8 159.26 L185.83 124.7 C192.62 125.33 197.98 130.96 197.98 137.91 L197.98
							 159.26 L245.66 159.26 C251.29 159.32 256.03 164.88 251.91 172.5 ZM35.73 210.58 C35.34 167.83 35.73 39.6
							 35.73 39.6 C35.73 33.13 40.99 27.87 47.45 27.87 L141.35 27.87 C142.86 27.87 144.29 28.5 145.31 29.61
							 L175.66 62.59 C176.57 63.58 177.08 64.88 177.08 66.23 L177.08 151.67 L167.24 151.67 L167.24 73.61 C167.24
							 72.26 166.14 71.16 164.79 71.16 L141.55 71.16 C138.83 71.16 136.62 68.95 136.62 66.24 L136.62 40.17
							 C136.62 38.82 135.52 37.72 134.17 37.72 L47.46 37.72 C46.42 37.72 45.58 38.56 45.58 39.6 L45.58 199.82
							 L38.04 215.07 C38.04 215.07 35.77 214.9 35.73 210.58 ZM146.48 61.32 L161.11 61.32 L146.48 45.42 L146.48
							 61.32 ZM151.81 81.19 L61.06 81.19 C57.72 81.19 55 83.91 55 87.25 C55 90.59 57.72 93.31 61.06 93.31 L151.82
							 93.31 C155.16 93.31 157.88 90.59 157.88 87.25 C157.88 83.91 155.16 81.19 151.81 81.19 ZM157.88 122.54
							 C157.88 119.2 155.16 116.49 151.81 116.49 L61.06 116.49 C57.72 116.49 55 119.2 55 122.54 C55 125.88
							 57.72 128.6 61.06 128.6 L151.82 128.6 C155.16 128.6 157.88 125.88 157.88 122.54 ZM55 158.07 C55 161.41
							 57.72 164.12 61.06 164.12 L63.24 164.12 C67.07 153.45 76.56 152.01 76.56 152.01 L61.06 152.01 C57.72
							 152.01 55 154.73 55 158.07 Z" class="st1"/>
			</g>
		</g>
	</g>
</svg>
